X:1
T:I Obey, 85.85 D
T:I Obey, 85.85 D
T:Isabella G. Gould & Pluma M. Brown,  1897
T:Public Domain Courtesy of the Cyber Hymnal™
C:Isabella G. Gould & Pluma M. Brown,  1897
Z:Public Domain
Z:Courtesy of the Cyber Hymnal™
%%score ( 1 2 ) 3
L:1/8
Q:1/4=85
M:4/4
K:F
V:1 treble 
V:2 treble 
V:3 bass 
V:1
 C[CA][CG][CF] [CF][CE][C^D][CE] | C[CB][EA][EG] [FA]4 | C[Cc][FB][FA] [Fd][DB][DA][DG] | %3
 [CE][DB][EA][EG] F4 | [Ac][Ac][Ac][Ac] [Bd]>[Bd] [Bd][Bd] | [Bd][Ec][Gc][Bc] [Ac]4 | %6
 [FA][Ac] [Ac]>[Ac] [Bd][Bd][Gc][GB] | [FA][FA][EA][EG] F4 |] %8
V:2
 C x7 | C x7 | C x7 | x4 F4 | x8 | x8 | x8 | x4 F4 |] %8
V:3
 [F,A,][F,C][F,B,][F,A,] [G,B,][G,B,][G,B,][G,B,] | [C,G,][C,G,][C,C][C,C] [F,C]4 | %2
 [A,,F,][A,,F,][D,F,][D,F,] [B,,B,][B,,B,][B,,B,][B,,B,] | [C,B,][C,G,][C,C][C,B,] [F,A,]4 | %4
 [F,C][F,C][F,C][F,C] [B,,B,]>[B,,B,] [B,,B,][B,,B,] | [C,G,][C,G,][E,C][G,C] [F,C]4 | %6
 [F,C][F,C] [F,C]>[F,C] [B,,B,][B,,B,][B,,D][B,,D] | [C,C][C,C][C,C][C,B,] [F,A,]4 |] %8

